X:1
T:Title
%%score ( 1 2 3 ) ( 4 5 )
L:1/8
M:4/4
K:G
V:1 treble nm="Choir Aahs, Staff"
V:2 treble 
V:3 treble 
V:4 bass nm="Choir Aahs, Staff-1"
V:5 bass 
V:1
 d2 B2 z4 | [DG]2 G-[GB] cd [GB]2 | z4 d2 c2 | z4 G2 z2 | A2 B2 .A2 z2 | [^CE]2 D6 | %6
w: By~Georg~Peter~Weimar *||||||
 [DA]2 [DB]2 [EB]2 [EA]2 | .B2 c2 B2 z2 | z4 z2 A2 | .B2 c2 z4 | z4 .d2 B2 | [FA]2 G6 |] %12
w: ||||||
V:2
 B,CDE [FA]2 [EG]2 | z2 .A2 F2 z2 | [Gd]2 e2 z =FE^F | [GB]2 [EA]2 B,^C [DF]2 | %4
 DCB,^C D-[DG] [DF]2 | x8 | x8 | =F-[Fd] E2- E/ z/ D [CA]2 | [DA]2 [DB]2 [DB]2 ED | %9
 D-[Dd]EF [GB]2 [FA]2 | [Gd]2 [Ge]2 G-[Gc]GE | x8 |] %12
V:3
 x8 | x8 | z2 .G4 z2 | x8 | x8 | x8 | x8 | x8 | x8 | x8 | x8 | x8 |] %12
V:4
 G,A,B,C [D,D]2 [E,B,]2 | [B,,D]2 [A,,C]2 [D,A,]2 [G,,D]2 | [B,,D]2 [C,C]2 [G,,B,]2 [A,,C]2 | %3
 [B,,D]2 [C,C]2 [E,G,]2 [D,A,]2 | [D,F,]2 G,,A,, B,,-[B,,E,]F,G, | [A,,A,]2 [D,F,]6 | %6
 [D,F,]2 G,F, ^G,-[D,G,] [C,A,]2 | [D,A,]2 A,F, [E,^G,]2 A,2 | [F,A,]2 G,2 [B,,G,]2 [C,G,][D,F,] | %9
 .G,2 z2 D2 z2 | z2 .D2 z4 | [D,D]2 [G,B,]6 |] %12
V:5
 z2 G,2 z4 | x8 | x8 | x8 | z2 G,2 .D,2 A,,2 | x8 | z4 .E,2 z2 | z2 E,2 z4 | x8 | %9
 B,,-[B,,B,] [A,,C]2 G,,B,, [D,D]2 | [B,,D]2 C,-[C,C] [D,B,][E,C] [D,D]2 | x8 |] %12

